copytrade/img/icons/wallet.svg

<svg width="40" height="40" viewBox="0 0 40 40" fill="none" xmlns="http://www.w3.org/2000/svg">
<path fill-rule="evenodd" clip-rule="evenodd" d="M11.6667 5C7.98477 5 5 7.98477 5 11.6667V28.3333C5 32.0152 7.98477 35 11.6667 35H28.3333C32.0152 35 35 32.0152 35 28.3333V26H25C21.6863 26 19 23.3137 19 20C19 16.6863 21.6863 14 25 14H35V11.6667C35 7.98477 32.0152 5 28.3333 5H11.6667ZM35 16H25C22.7909 16 21 17.7909 21 20C21 22.2091 22.7909 24 25 24H35V16ZM24 20C24 19.4477 24.4477 19 25 19H25.1667C25.719 19 26.1667 19.4477 26.1667 20C26.1667 20.5523 25.719 21 25.1667 21H25C24.4477 21 24 20.5523 24 20Z" fill="#646E82"/>
</svg>

<svg width="40" height="40" fill="none" xmlns="http://www.w3.org/2000/svg"><path fill-rule="evenodd" clip-rule="evenodd" d="M11.667 5A6.667 6.667 0 005 11.667v16.666A6.667 6.667 0 0011.667 35h16.666A6.667 6.667 0 0035 28.333V26H25a6 6 0 010-12h10v-2.333A6.667 6.667 0 0028.333 5H11.667zM35 16H25a4 4 0 000 8h10v-8zm-11 4a1 1 0 011-1h.167a1 1 0 110 2H25a1 1 0 01-1-1z" fill="#646E82"/></svg>
